src/assets/images/pokeball.svg

<svg xmlns="http://www.w3.org/2000/svg" xmlns:xlink="http://www.w3.org/1999/xlink" width="800" zoomAndPan="magnify" viewBox="0 0 600 599.999999" height="800" preserveAspectRatio="xMidYMid meet" version="1.0"><path fill="#ff3d00" d="M 525 300 C 525 303.683594 524.910156 307.363281 524.730469 311.039062 C 524.546875 314.71875 524.277344 318.390625 523.917969 322.054688 C 523.554688 325.71875 523.105469 329.371094 522.566406 333.015625 C 522.023438 336.65625 521.394531 340.285156 520.675781 343.894531 C 519.957031 347.507812 519.152344 351.097656 518.257812 354.671875 C 517.363281 358.242188 516.378906 361.789062 515.3125 365.3125 C 514.242188 368.835938 513.089844 372.332031 511.847656 375.800781 C 510.605469 379.265625 509.28125 382.703125 507.871094 386.105469 C 506.464844 389.503906 504.972656 392.871094 503.398438 396.199219 C 501.824219 399.527344 500.167969 402.816406 498.433594 406.0625 C 496.695312 409.3125 494.882812 412.515625 492.988281 415.671875 C 491.097656 418.832031 489.125 421.941406 487.082031 425.003906 C 485.035156 428.066406 482.914062 431.074219 480.722656 434.03125 C 478.527344 436.988281 476.261719 439.890625 473.925781 442.738281 C 471.589844 445.585938 469.1875 448.371094 466.714844 451.101562 C 464.242188 453.828125 461.703125 456.496094 459.097656 459.097656 C 456.496094 461.703125 453.828125 464.242188 451.101562 466.714844 C 448.371094 469.1875 445.585938 471.589844 442.738281 473.925781 C 439.890625 476.261719 436.988281 478.527344 434.03125 480.722656 C 431.074219 482.914062 428.066406 485.035156 425.003906 487.082031 C 421.941406 489.125 418.832031 491.097656 415.671875 492.988281 C 412.515625 494.882812 409.3125 496.695312 406.0625 498.433594 C 402.816406 500.167969 399.527344 501.824219 396.199219 503.398438 C 392.871094 504.972656 389.503906 506.464844 386.105469 507.871094 C 382.703125 509.28125 379.265625 510.605469 375.800781 511.847656 C 372.332031 513.089844 368.835938 514.242188 365.3125 515.3125 C 361.789062 516.378906 358.242188 517.363281 354.671875 518.257812 C 351.097656 519.152344 347.507812 519.957031 343.894531 520.675781 C 340.285156 521.394531 336.65625 522.023438 333.015625 522.566406 C 329.371094 523.105469 325.71875 523.554688 322.054688 523.917969 C 318.390625 524.277344 314.71875 524.546875 311.039062 524.730469 C 307.363281 524.910156 303.683594 525 300 525 C 296.316406 525 292.636719 524.910156 288.960938 524.730469 C 285.28125 524.546875 281.609375 524.277344 277.945312 523.917969 C 274.28125 523.554688 270.628906 523.105469 266.984375 522.566406 C 263.34375 522.023438 259.714844 521.394531 256.105469 520.675781 C 252.492188 519.957031 248.902344 519.152344 245.328125 518.257812 C 241.757812 517.363281 238.210938 516.378906 234.6875 515.3125 C 231.164062 514.242188 227.667969 513.089844 224.199219 511.847656 C 220.734375 510.605469 217.296875 509.28125 213.894531 507.871094 C 210.496094 506.464844 207.128906 504.972656 203.800781 503.398438 C 200.472656 501.824219 197.183594 500.167969 193.9375 498.433594 C 190.6875 496.695312 187.484375 494.882812 184.328125 492.988281 C 181.167969 491.097656 178.058594 489.125 174.996094 487.082031 C 171.933594 485.035156 168.925781 482.914062 165.96875 480.722656 C 163.011719 478.527344 160.109375 476.261719 157.261719 473.925781 C 154.414062 471.589844 151.628906 469.1875 148.898438 466.714844 C 146.171875 464.242188 143.503906 461.703125 140.902344 459.097656 C 138.296875 456.496094 135.757812 453.828125 133.285156 451.101562 C 130.8125 448.371094 128.410156 445.585938 126.074219 442.738281 C 123.738281 439.890625 121.472656 436.988281 119.277344 434.03125 C 117.085938 431.074219 114.964844 428.066406 112.917969 425.003906 C 110.875 421.941406 108.902344 418.832031 107.011719 415.671875 C 105.117188 412.515625 103.304688 409.3125 101.566406 406.0625 C 99.832031 402.816406 98.175781 399.527344 96.601562 396.199219 C 95.027344 392.871094 93.535156 389.503906 92.128906 386.105469 C 90.71875 382.703125 89.394531 379.265625 88.152344 375.800781 C 86.910156 372.332031 85.757812 368.835938 84.6875 365.3125 C 83.621094 361.789062 82.636719 358.242188 81.742188 354.671875 C 80.847656 351.097656 80.042969 347.507812 79.324219 343.894531 C 78.605469 340.285156 77.976562 336.65625 77.433594 333.015625 C 76.894531 329.371094 76.445312 325.71875 76.082031 322.054688 C 75.722656 318.390625 75.453125 314.71875 75.269531 311.039062 C 75.089844 307.363281 75 303.683594 75 300 C 75 296.316406 75.089844 292.636719 75.269531 288.960938 C 75.453125 285.28125 75.722656 281.609375 76.082031 277.945312 C 76.445312 274.28125 76.894531 270.628906 77.433594 266.984375 C 77.976562 263.34375 78.605469 259.714844 79.324219 256.105469 C 80.042969 252.492188 80.847656 248.902344 81.742188 245.328125 C 82.636719 241.757812 83.621094 238.210938 84.6875 234.6875 C 85.757812 231.164062 86.910156 227.667969 88.152344 224.199219 C 89.394531 220.734375 90.71875 217.296875 92.128906 213.894531 C 93.535156 210.496094 95.027344 207.128906 96.601562 203.800781 C 98.175781 200.472656 99.832031 197.183594 101.566406 193.9375 C 103.304688 190.6875 105.117188 187.484375 107.011719 184.328125 C 108.902344 181.167969 110.875 178.058594 112.917969 174.996094 C 114.964844 171.933594 117.085938 168.925781 119.277344 165.96875 C 121.472656 163.011719 123.738281 160.109375 126.074219 157.261719 C 128.410156 154.414062 130.8125 151.628906 133.285156 148.898438 C 135.757812 146.171875 138.296875 143.503906 140.902344 140.902344 C 143.503906 138.296875 146.171875 135.757812 148.898438 133.285156 C 151.628906 130.8125 154.414062 128.410156 157.261719 126.074219 C 160.109375 123.738281 163.011719 121.472656 165.96875 119.277344 C 168.925781 117.085938 171.933594 114.964844 174.996094 112.917969 C 178.058594 110.875 181.167969 108.902344 184.328125 107.011719 C 187.484375 105.117188 190.6875 103.304688 193.9375 101.566406 C 197.183594 99.832031 200.472656 98.175781 203.800781 96.601562 C 207.128906 95.027344 210.496094 93.535156 213.894531 92.128906 C 217.296875 90.71875 220.734375 89.394531 224.199219 88.152344 C 227.667969 86.910156 231.164062 85.757812 234.6875 84.6875 C 238.210938 83.621094 241.757812 82.636719 245.328125 81.742188 C 248.902344 80.847656 252.492188 80.042969 256.105469 79.324219 C 259.714844 78.605469 263.34375 77.976562 266.984375 77.433594 C 270.628906 76.894531 274.28125 76.445312 277.945312 76.082031 C 281.609375 75.722656 285.28125 75.453125 288.960938 75.269531 C 292.636719 75.089844 296.316406 75 300 75 C 303.683594 75 307.363281 75.089844 311.039062 75.269531 C 314.71875 75.453125 318.390625 75.722656 322.054688 76.082031 C 325.71875 76.445312 329.371094 76.894531 333.015625 77.433594 C 336.65625 77.976562 340.285156 78.605469 343.894531 79.324219 C 347.507812 80.042969 351.097656 80.847656 354.671875 81.742188 C 358.242188 82.636719 361.789062 83.621094 365.3125 84.6875 C 368.835938 85.757812 372.332031 86.910156 375.800781 88.152344 C 379.265625 89.394531 382.703125 90.71875 386.105469 92.128906 C 389.503906 93.535156 392.871094 95.027344 396.199219 96.601562 C 399.527344 98.175781 402.816406 99.832031 406.0625 101.566406 C 409.3125 103.304688 412.515625 105.117188 415.671875 107.011719 C 418.832031 108.902344 421.941406 110.875 425.003906 112.917969 C 428.066406 114.964844 431.074219 117.085938 434.03125 119.277344 C 436.988281 121.472656 439.890625 123.738281 442.738281 126.074219 C 445.585938 128.410156 448.371094 130.8125 451.101562 133.285156 C 453.828125 135.757812 456.496094 138.296875 459.097656 140.902344 C 461.703125 143.503906 464.242188 146.171875 466.714844 148.898438 C 469.1875 151.628906 471.589844 154.414062 473.925781 157.261719 C 476.261719 160.109375 478.527344 163.011719 480.722656 165.96875 C 482.914062 168.925781 485.035156 171.933594 487.082031 174.996094 C 489.125 178.058594 491.097656 181.167969 492.988281 184.328125 C 494.882812 187.484375 496.695312 190.6875 498.433594 193.9375 C 500.167969 197.183594 501.824219 200.472656 503.398438 203.800781 C 504.972656 207.128906 506.464844 210.496094 507.871094 213.894531 C 509.28125 217.296875 510.605469 220.734375 511.847656 224.199219 C 513.089844 227.667969 514.242188 231.164062 515.3125 234.6875 C 516.378906 238.210938 517.363281 241.757812 518.257812 245.328125 C 519.152344 248.902344 519.957031 252.492188 520.675781 256.105469 C 521.394531 259.714844 522.023438 263.34375 522.566406 266.984375 C 523.105469 270.628906 523.554688 274.28125 523.917969 277.945312 C 524.277344 281.609375 524.546875 285.28125 524.730469 288.960938 C 524.910156 292.636719 525 296.316406 525 300 Z M 525 300 " fill-opacity="1" fill-rule="nonzero"/><path fill="#dd2c00" d="M 300 75 L 299.886719 75 C 394.289062 106.375 462.5 195.0625 462.5 300 C 462.5 404.9375 394.289062 493.625 299.875 525 L 300 525 C 424.261719 525 525 424.261719 525 300 C 525 175.738281 424.261719 75 300 75 Z M 300 75 " fill-opacity="1" fill-rule="nonzero"/><path fill="#ffffff" d="M 362.5 300 C 362.5 265.476562 334.523438 237.5 300 237.5 C 265.488281 237.5 237.5 265.476562 237.5 300 L 75 300 C 75 424.261719 175.738281 525 300 525 C 424.261719 525 525 424.261719 525 300 Z M 362.5 300 " fill-opacity="1" fill-rule="nonzero"/><path fill="#cfd8dc" d="M 462.5 300 C 462.5 404.9375 394.289062 493.625 299.875 525 L 300 525 C 424.261719 525 525 424.261719 525 300 Z M 462.5 300 " fill-opacity="1" fill-rule="nonzero"/><path fill="#37474f" d="M 300 87.5 C 417.175781 87.5 512.5 182.824219 512.5 300 C 512.5 417.175781 417.175781 512.5 300 512.5 C 182.824219 512.5 87.5 417.175781 87.5 300 C 87.5 182.824219 182.824219 87.5 300 87.5 M 300 62.5 C 168.851562 62.5 62.5 168.851562 62.5 300 C 62.5 431.148438 168.851562 537.5 300 537.5 C 431.148438 537.5 537.5 431.148438 537.5 300 C 537.5 168.851562 431.148438 62.5 300 62.5 Z M 300 62.5 " fill-opacity="1" fill-rule="nonzero"/><path fill="#37474f" d="M 75 287.5 L 237.5 287.5 L 237.5 312.5 L 75 312.5 Z M 75 287.5 " fill-opacity="1" fill-rule="nonzero"/><path fill="#37474f" d="M 362.5 287.5 L 525 287.5 L 525 312.5 L 362.5 312.5 Z M 362.5 287.5 " fill-opacity="1" fill-rule="nonzero"/><path fill="#37474f" d="M 300 250 C 327.574219 250 350 272.425781 350 300 C 350 327.574219 327.574219 350 300 350 C 272.425781 350 250 327.574219 250 300 C 250 272.425781 272.425781 250 300 250 M 300 225 C 258.585938 225 225 258.574219 225 300 C 225 341.414062 258.585938 375 300 375 C 341.425781 375 375 341.414062 375 300 C 375 258.574219 341.425781 225 300 225 Z M 300 225 " fill-opacity="1" fill-rule="nonzero"/><path fill="#37474f" d="M 325 300 C 325 300.820312 324.960938 301.636719 324.878906 302.449219 C 324.800781 303.265625 324.679688 304.074219 324.519531 304.878906 C 324.359375 305.679688 324.160156 306.472656 323.921875 307.257812 C 323.6875 308.039062 323.410156 308.8125 323.097656 309.566406 C 322.785156 310.324219 322.433594 311.0625 322.046875 311.785156 C 321.660156 312.507812 321.242188 313.207031 320.785156 313.890625 C 320.332031 314.570312 319.84375 315.226562 319.324219 315.859375 C 318.804688 316.492188 318.257812 317.097656 317.675781 317.675781 C 317.097656 318.257812 316.492188 318.804688 315.859375 319.324219 C 315.226562 319.84375 314.570312 320.332031 313.890625 320.785156 C 313.207031 321.242188 312.507812 321.660156 311.785156 322.046875 C 311.0625 322.433594 310.324219 322.785156 309.566406 323.097656 C 308.8125 323.410156 308.039062 323.6875 307.257812 323.921875 C 306.472656 324.160156 305.679688 324.359375 304.878906 324.519531 C 304.074219 324.679688 303.265625 324.800781 302.449219 324.878906 C 301.636719 324.960938 300.820312 325 300 325 C 299.179688 325 298.363281 324.960938 297.550781 324.878906 C 296.734375 324.800781 295.925781 324.679688 295.121094 324.519531 C 294.320312 324.359375 293.527344 324.160156 292.742188 323.921875 C 291.960938 323.6875 291.1875 323.410156 290.433594 323.097656 C 289.675781 322.785156 288.9375 322.433594 288.214844 322.046875 C 287.492188 321.660156 286.792969 321.242188 286.109375 320.785156 C 285.429688 320.332031 284.773438 319.84375 284.140625 319.324219 C 283.507812 318.804688 282.902344 318.257812 282.324219 317.675781 C 281.742188 317.097656 281.195312 316.492188 280.675781 315.859375 C 280.15625 315.226562 279.667969 314.570312 279.214844 313.890625 C 278.757812 313.207031 278.339844 312.507812 277.953125 311.785156 C 277.566406 311.0625 277.214844 310.324219 276.902344 309.566406 C 276.589844 308.8125 276.3125 308.039062 276.078125 307.257812 C 275.839844 306.472656 275.640625 305.679688 275.480469 304.878906 C 275.320312 304.074219 275.199219 303.265625 275.121094 302.449219 C 275.039062 301.636719 275 300.820312 275 300 C 275 299.179688 275.039062 298.363281 275.121094 297.550781 C 275.199219 296.734375 275.320312 295.925781 275.480469 295.121094 C 275.640625 294.320312 275.839844 293.527344 276.078125 292.742188 C 276.3125 291.960938 276.589844 291.1875 276.902344 290.433594 C 277.214844 289.675781 277.566406 288.9375 277.953125 288.214844 C 278.339844 287.492188 278.757812 286.792969 279.214844 286.109375 C 279.667969 285.429688 280.15625 284.773438 280.675781 284.140625 C 281.195312 283.507812 281.742188 282.902344 282.324219 282.324219 C 282.902344 281.742188 283.507812 281.195312 284.140625 280.675781 C 284.773438 280.15625 285.429688 279.667969 286.109375 279.214844 C 286.792969 278.757812 287.492188 278.339844 288.214844 277.953125 C 288.9375 277.566406 289.675781 277.214844 290.433594 276.902344 C 291.1875 276.589844 291.960938 276.3125 292.742188 276.078125 C 293.527344 275.839844 294.320312 275.640625 295.121094 275.480469 C 295.925781 275.320312 296.734375 275.199219 297.550781 275.121094 C 298.363281 275.039062 299.179688 275 300 275 C 300.820312 275 301.636719 275.039062 302.449219 275.121094 C 303.265625 275.199219 304.074219 275.320312 304.878906 275.480469 C 305.679688 275.640625 306.472656 275.839844 307.257812 276.078125 C 308.039062 276.3125 308.8125 276.589844 309.566406 276.902344 C 310.324219 277.214844 311.0625 277.566406 311.785156 277.953125 C 312.507812 278.339844 313.207031 278.757812 313.890625 279.214844 C 314.570312 279.667969 315.226562 280.15625 315.859375 280.675781 C 316.492188 281.195312 317.097656 281.742188 317.675781 282.324219 C 318.257812 282.902344 318.804688 283.507812 319.324219 284.140625 C 319.84375 284.773438 320.332031 285.429688 320.785156 286.109375 C 321.242188 286.792969 321.660156 287.492188 322.046875 288.214844 C 322.433594 288.9375 322.785156 289.675781 323.097656 290.433594 C 323.410156 291.1875 323.6875 291.960938 323.921875 292.742188 C 324.160156 293.527344 324.359375 294.320312 324.519531 295.121094 C 324.679688 295.925781 324.800781 296.734375 324.878906 297.550781 C 324.960938 298.363281 325 299.179688 325 300 Z M 325 300 " fill-opacity="1" fill-rule="nonzero"/></svg>

<svg xmlns="http://www.w3.org/2000/svg" width="800" viewBox="0 0 600 600" height="800" version="1.0"><path fill="#ff3d00" d="M525 300c0 3.684-.09 7.363-.27 11.04-.183 3.679-.453 7.35-.812 11.015a229.923 229.923 0 0 1-1.352 10.96 227.671 227.671 0 0 1-4.308 21.657 225.531 225.531 0 0 1-6.41 21.129 226.959 226.959 0 0 1-8.45 20.398 225.916 225.916 0 0 1-4.964 9.863 223.266 223.266 0 0 1-5.446 9.61c-1.89 3.16-3.863 6.27-5.906 9.332a227.231 227.231 0 0 1-6.36 9.027 225.765 225.765 0 0 1-14.008 17.07 222.934 222.934 0 0 1-7.616 7.997 222.934 222.934 0 0 1-16.36 14.828 228.32 228.32 0 0 1-8.707 6.797 227.231 227.231 0 0 1-9.027 6.359 224.715 224.715 0 0 1-9.332 5.906 223.266 223.266 0 0 1-9.61 5.446 225.916 225.916 0 0 1-9.863 4.964 226.959 226.959 0 0 1-20.398 8.45 225.531 225.531 0 0 1-21.13 6.41 227.671 227.671 0 0 1-21.656 4.309c-3.644.538-7.296.988-10.96 1.351-3.664.36-7.336.629-11.016.812a226.057 226.057 0 0 1-22.078 0c-3.68-.183-7.352-.453-11.016-.812a229.923 229.923 0 0 1-10.96-1.352 227.671 227.671 0 0 1-21.657-4.308 225.531 225.531 0 0 1-21.129-6.41 226.959 226.959 0 0 1-20.398-8.45 225.916 225.916 0 0 1-9.863-4.964 223.266 223.266 0 0 1-9.61-5.446c-3.16-1.89-6.27-3.863-9.332-5.906a227.231 227.231 0 0 1-9.027-6.36 225.765 225.765 0 0 1-17.07-14.008 222.934 222.934 0 0 1-7.997-7.616 222.934 222.934 0 0 1-14.828-16.36 228.32 228.32 0 0 1-6.797-8.707 227.231 227.231 0 0 1-6.359-9.027 224.715 224.715 0 0 1-5.906-9.332 223.266 223.266 0 0 1-5.446-9.61 225.916 225.916 0 0 1-4.964-9.863 226.959 226.959 0 0 1-8.45-20.398 225.531 225.531 0 0 1-6.41-21.13 227.671 227.671 0 0 1-4.309-21.656c-.538-3.644-.988-7.296-1.351-10.96-.36-3.664-.629-7.336-.812-11.016a226.057 226.057 0 0 1 0-22.078c.183-3.68.453-7.352.812-11.016.363-3.664.813-7.316 1.352-10.96a227.671 227.671 0 0 1 4.308-21.657 225.531 225.531 0 0 1 6.41-21.129 226.959 226.959 0 0 1 8.45-20.398 225.916 225.916 0 0 1 4.964-9.863c1.739-3.25 3.551-6.454 5.446-9.61 1.89-3.16 3.863-6.27 5.906-9.332a227.231 227.231 0 0 1 6.36-9.027 225.765 225.765 0 0 1 14.008-17.07 222.934 222.934 0 0 1 7.616-7.997 222.934 222.934 0 0 1 16.36-14.828 228.32 228.32 0 0 1 8.707-6.797 227.231 227.231 0 0 1 9.027-6.359 224.715 224.715 0 0 1 9.332-5.906 223.266 223.266 0 0 1 9.61-5.446 225.916 225.916 0 0 1 9.863-4.964 226.959 226.959 0 0 1 20.398-8.45 225.531 225.531 0 0 1 21.13-6.41 227.671 227.671 0 0 1 21.656-4.309c3.644-.538 7.296-.988 10.96-1.351 3.664-.36 7.336-.629 11.016-.812a226.057 226.057 0 0 1 22.078 0c3.68.183 7.352.453 11.016.812 3.664.363 7.316.813 10.96 1.352a227.671 227.671 0 0 1 21.657 4.308 225.531 225.531 0 0 1 21.129 6.41 226.959 226.959 0 0 1 20.398 8.45 225.916 225.916 0 0 1 9.863 4.964c3.25 1.739 6.454 3.551 9.61 5.446 3.16 1.89 6.27 3.863 9.332 5.906a227.231 227.231 0 0 1 9.027 6.36 225.765 225.765 0 0 1 17.07 14.008 222.934 222.934 0 0 1 7.997 7.616 222.934 222.934 0 0 1 14.828 16.36 228.32 228.32 0 0 1 6.797 8.707 227.231 227.231 0 0 1 6.359 9.027 224.715 224.715 0 0 1 5.906 9.332 223.266 223.266 0 0 1 5.446 9.61 225.916 225.916 0 0 1 4.964 9.863 226.959 226.959 0 0 1 8.45 20.398 225.531 225.531 0 0 1 6.41 21.13 227.671 227.671 0 0 1 4.309 21.656c.538 3.644.988 7.296 1.351 10.96.36 3.664.629 7.336.812 11.016.18 3.676.27 7.355.27 11.039Zm0 0"/><path fill="#dd2c00" d="M300 75h-.113C394.289 106.375 462.5 195.063 462.5 300c0 104.938-68.21 193.625-162.625 225H300c124.262 0 225-100.738 225-225S424.262 75 300 75Zm0 0"/><path fill="#fff" d="M362.5 300c0-34.523-27.977-62.5-62.5-62.5-34.512 0-62.5 27.977-62.5 62.5H75c0 124.262 100.738 225 225 225s225-100.738 225-225Zm0 0"/><path fill="#cfd8dc" d="M462.5 300c0 104.938-68.21 193.625-162.625 225H300c124.262 0 225-100.738 225-225Zm0 0"/><path fill="#37474f" d="M300 87.5c117.176 0 212.5 95.324 212.5 212.5S417.176 512.5 300 512.5 87.5 417.176 87.5 300 182.824 87.5 300 87.5m0-25C168.852 62.5 62.5 168.852 62.5 300S168.852 537.5 300 537.5 537.5 431.148 537.5 300 431.148 62.5 300 62.5Zm0 0"/><path fill="#37474f" d="M75 287.5h162.5v25H75ZM362.5 287.5H525v25H362.5Zm0 0"/><path fill="#37474f" d="M300 250c27.574 0 50 22.426 50 50s-22.426 50-50 50-50-22.426-50-50 22.426-50 50-50m0-25c-41.414 0-75 33.574-75 75 0 41.414 33.586 75 75 75 41.426 0 75-33.586 75-75 0-41.426-33.574-75-75-75Zm0 0"/><path fill="#37474f" d="M325 300c0 .82-.04 1.637-.121 2.45-.078.816-.2 1.624-.36 2.429a25.216 25.216 0 0 1-1.421 4.687 24.997 24.997 0 0 1-3.773 6.293 24.169 24.169 0 0 1-1.65 1.817 24.67 24.67 0 0 1-5.89 4.371 24.478 24.478 0 0 1-4.527 1.875c-.785.238-1.578.437-2.38.598-.804.16-1.612.28-2.429.359-.812.082-1.629.121-2.449.121-.82 0-1.637-.04-2.45-.121-.816-.078-1.624-.2-2.429-.36a25.216 25.216 0 0 1-4.687-1.421 24.997 24.997 0 0 1-6.293-3.773 24.169 24.169 0 0 1-1.817-1.65 24.67 24.67 0 0 1-4.371-5.89 24.478 24.478 0 0 1-1.875-4.527 25.216 25.216 0 0 1-.598-2.38 24.282 24.282 0 0 1-.359-2.429A24.366 24.366 0 0 1 275 300c0-.82.04-1.637.121-2.45.078-.816.2-1.624.36-2.429a25.216 25.216 0 0 1 1.421-4.687 24.997 24.997 0 0 1 3.773-6.293 24.169 24.169 0 0 1 1.65-1.817 24.67 24.67 0 0 1 5.89-4.371 24.478 24.478 0 0 1 4.527-1.875 25.216 25.216 0 0 1 2.38-.598c.804-.16 1.612-.28 2.429-.359A24.366 24.366 0 0 1 300 275c.82 0 1.637.04 2.45.121.816.078 1.624.2 2.429.36a25.216 25.216 0 0 1 4.687 1.421 24.997 24.997 0 0 1 6.293 3.773c.633.52 1.239 1.067 1.817 1.65a24.67 24.67 0 0 1 4.371 5.89 24.478 24.478 0 0 1 1.875 4.527c.238.785.437 1.578.598 2.38.16.804.28 1.612.359 2.429.082.812.121 1.629.121 2.449Zm0 0"/></svg>
